src/22/panel/mintupdate-error.svg

<svg xmlns="http://www.w3.org/2000/svg" width="22" height="22" version="1.1">
 <defs>
  <style id="current-color-scheme" type="text/css">
   .ColorScheme-Text { color:#bebebe; } .ColorScheme-Highlight { color:#5294e2; }
  </style>
 </defs>
 <g>
  <path style="fill:currentColor;fill-rule:evenodd" class="ColorScheme-Highlight" d="M 8.1719,6.7578 11,9.5859 13.828,6.7578 15.242,8.1719 12.414,11 15.242,13.828 13.828,15.242 11,12.414 8.1719,15.242 6.7578,13.828 9.5859,11 6.7578,8.1719 8.1719,6.7578 Z M 11,3 C 8.8519,4.9698 5.2346,6.7049 4,7 4,12.333 6.625,18.111 11,19 15.375,18.111 18,12.333 18,7 16.765,6.7049 13.148,4.9698 11,3 Z"/>
 </g>
</svg>

<svg xmlns="http://www.w3.org/2000/svg" width="22" height="22"><defs><style id="current-color-scheme" type="text/css"></style></defs><path d="M8.172 6.758L11 9.586l2.828-2.828 1.414 1.414L12.414 11l2.828 2.828-1.414 1.414L11 12.414l-2.828 2.828-1.414-1.414L9.586 11 6.758 8.172l1.414-1.414zM11 3C8.852 4.97 5.235 6.705 4 7c0 5.333 2.625 11.111 7 12 4.375-.889 7-6.667 7-12-1.235-.295-4.852-2.03-7-4z" fill="currentColor" fill-rule="evenodd" color="#5294e2"/></svg>
